!! 00049] TT[KA
!! NN
!!!OTL: Heng shan li xialai xie youji dui
!!!ARE: Asia, China, Shanxi Shanbei
!! Ethnic Group: Han
!! I, 44
!!!SCT: C0009
!!!YEM: Copyright 1995, estate of Helmut Schaffrath.
**kern
*ICvox
*Ivox
*M2/4
*k[b-e-]
*B-:
{8bb-
8gg
4ff
=1
8bb-
4.ccc
=2
4fff
8ccc
8fff
=3
16bb-
16gg
4.ff}
=4
{8fff
4ccc
8bb-
=5
8ccc
4ff
8gg
=6
8.bb-
16ccc
16fff
16ccc
16bb-
16gg
=7
16ff
16gg
4.ff}
==
!!!AGN: Shange, Xintianyou. Geming lishi minge
!! neues Volkslied.  Verzierungen am Phrasenende.
!!!ONB: ESAC (Essen Associative Code) Database: CHINA
!!!AMT: simple duple
!!!AIN: vox
!!!EED: Helmut Schaffrath
!!!EEV: 1.0
*-
